src/assets/images/profilePhoneIcon.svg

<?xml version="1.0" encoding="UTF-8"?>
<svg xmlns="http://www.w3.org/2000/svg" xmlns:xlink="http://www.w3.org/1999/xlink" width="30pt" height="29pt" viewBox="0 0 30 29" version="1.1">
<g id="surface1">
<path style=" stroke:none;fill-rule:nonzero;fill:rgb(100%,100%,100%);fill-opacity:1;" d="M 29.253906 20.703125 L 24.722656 16.3125 C 24.453125 16.050781 24.09375 15.941406 23.726562 15.96875 C 23.390625 15.988281 23.046875 16.132812 22.777344 16.394531 L 22.066406 17.082031 C 21.796875 17.339844 21.652344 17.671875 21.625 18 C 21.621094 18.0625 21.621094 18.117188 21.625 18.175781 C 21.5625 18.171875 21.503906 18.171875 21.445312 18.175781 C 21.105469 18.199219 20.761719 18.34375 20.496094 18.601562 L 18.265625 20.765625 C 18.191406 20.832031 18.105469 20.871094 18.03125 20.878906 C 17.984375 20.882812 17.941406 20.871094 17.914062 20.84375 L 8.445312 11.671875 C 8.417969 11.648438 8.40625 11.609375 8.410156 11.558594 C 8.417969 11.484375 8.457031 11.40625 8.527344 11.332031 L 10.761719 9.171875 C 11.023438 8.914062 11.175781 8.582031 11.199219 8.253906 C 11.203125 8.195312 11.203125 8.136719 11.199219 8.082031 C 11.257812 8.082031 11.320312 8.082031 11.378906 8.082031 C 11.714844 8.054688 12.058594 7.910156 12.328125 7.652344 L 13.039062 6.960938 C 13.308594 6.703125 13.453125 6.371094 13.484375 6.042969 C 13.507812 5.6875 13.390625 5.339844 13.121094 5.082031 L 8.589844 0.691406 C 8.160156 0.269531 7.605469 0.0390625 7.066406 0 L 7.066406 0.00390625 C 6.496094 -0.03125 5.933594 0.140625 5.527344 0.539062 L 1.527344 4.40625 C 0.398438 5.503906 -0.09375 7.007812 0.015625 8.542969 C 0.121094 10.054688 0.820312 11.605469 2.078125 12.824219 L 16.722656 27.011719 C 17.984375 28.230469 19.585938 28.902344 21.140625 29.007812 C 22.734375 29.113281 24.285156 28.636719 25.414062 27.542969 L 29.410156 23.671875 C 29.824219 23.273438 30 22.730469 29.960938 22.179688 L 29.964844 22.179688 C 29.925781 21.65625 29.683594 21.121094 29.253906 20.703125 Z M 23.925781 17.078125 L 28.460938 21.46875 C 28.691406 21.699219 28.824219 21.984375 28.84375 22.253906 C 28.863281 22.5 28.789062 22.734375 28.617188 22.898438 L 24.617188 26.773438 C 23.730469 27.636719 22.492188 28.011719 21.222656 27.925781 C 19.925781 27.839844 18.585938 27.269531 17.519531 26.238281 L 2.871094 12.054688 C 1.808594 11.023438 1.21875 9.730469 1.132812 8.46875 C 1.042969 7.238281 1.433594 6.039062 2.324219 5.175781 L 6.320312 1.304688 C 6.492188 1.140625 6.734375 1.066406 6.984375 1.085938 C 7.269531 1.105469 7.5625 1.230469 7.796875 1.457031 L 12.328125 5.851562 C 12.355469 5.875 12.367188 5.917969 12.363281 5.964844 C 12.355469 6.039062 12.316406 6.121094 12.246094 6.191406 L 11.535156 6.882812 C 11.460938 6.953125 11.375 6.992188 11.296875 6.996094 C 11.25 7 11.207031 6.988281 11.179688 6.964844 L 7.441406 3.34375 L 7.046875 2.957031 L 6.644531 3.34375 L 6.308594 3.671875 L 5.910156 4.054688 L 6.308594 4.441406 L 10.046875 8.0625 C 10.074219 8.085938 10.085938 8.128906 10.082031 8.175781 C 10.078125 8.25 10.035156 8.332031 9.960938 8.402344 L 7.734375 10.566406 C 7.464844 10.820312 7.316406 11.15625 7.289062 11.480469 C 7.265625 11.835938 7.382812 12.1875 7.644531 12.445312 L 17.117188 21.613281 C 17.382812 21.871094 17.746094 21.988281 18.109375 21.960938 C 18.449219 21.9375 18.792969 21.792969 19.058594 21.535156 L 21.292969 19.371094 C 21.363281 19.304688 21.445312 19.265625 21.523438 19.261719 C 21.570312 19.257812 21.613281 19.265625 21.644531 19.292969 L 25.382812 22.910156 L 25.777344 23.296875 L 26.175781 22.910156 L 26.515625 22.585938 L 26.910156 22.199219 L 26.515625 21.8125 L 22.777344 18.195312 C 22.75 18.167969 22.738281 18.125 22.742188 18.078125 C 22.75 18.003906 22.789062 17.921875 22.859375 17.855469 L 23.574219 17.164062 C 23.644531 17.089844 23.730469 17.050781 23.808594 17.046875 C 23.855469 17.042969 23.898438 17.054688 23.925781 17.078125 Z M 23.925781 17.078125 "/>
</g>
</svg>

<svg xmlns="http://www.w3.org/2000/svg" width="40" height="29pt" viewBox="0 0 30 29"><path style="stroke:none;fill-rule:nonzero;fill:#fff;fill-opacity:1" d="m29.254 20.703-4.531-4.39a1.27 1.27 0 0 0-.996-.344 1.5 1.5 0 0 0-.95.426l-.71.687c-.27.258-.415.59-.442.918a1.32 1.32 0 0 0 0 .176 1.522 1.522 0 0 0-1.129.426l-2.23 2.164a.436.436 0 0 1-.235.113c-.047.004-.09-.008-.117-.035l-9.469-9.172c-.027-.024-.039-.063-.035-.113a.398.398 0 0 1 .117-.227l2.235-2.16a1.45 1.45 0 0 0 .437-.918 1.262 1.262 0 0 0 0-.172h.18c.336-.027.68-.172.95-.43l.71-.691c.27-.258.414-.59.445-.918a1.198 1.198 0 0 0-.363-.961L8.59.692A2.441 2.441 0 0 0 7.066 0v.004c-.57-.035-1.132.137-1.539.535l-4 3.867C.398 5.504-.093 7.008.016 8.543c.105 1.512.804 3.062 2.062 4.281l14.645 14.188c1.261 1.218 2.863 1.89 4.418 1.996 1.593.105 3.144-.371 4.273-1.465l3.996-3.871c.414-.399.59-.942.55-1.492h.005a2.323 2.323 0 0 0-.711-1.477zm-5.328-3.625 4.535 4.39c.23.231.363.516.383.786a.788.788 0 0 1-.227.644l-4 3.875c-.887.864-2.125 1.239-3.394 1.153-1.297-.086-2.637-.656-3.703-1.688L2.87 12.055C1.81 11.023 1.22 9.73 1.133 8.469c-.09-1.23.3-2.43 1.191-3.293L6.32 1.305a.857.857 0 0 1 .664-.22c.286.02.579.145.813.372l4.531 4.395c.027.023.04.066.035.113a.387.387 0 0 1-.117.226l-.71.692a.386.386 0 0 1-.24.113.161.161 0 0 1-.116-.031L7.44 3.344l-.394-.387-.402.387-.336.328-.399.383.399.386 3.738 3.622c.027.023.039.066.035.113a.354.354 0 0 1-.121.226l-2.227 2.164c-.27.254-.418.59-.445.914-.023.356.094.707.356.965l9.472 9.168c.266.258.63.375.992.348.34-.023.684-.168.95-.426l2.234-2.164a.373.373 0 0 1 .23-.11c.047-.003.09.005.122.032l3.738 3.617.394.387.399-.387.34-.324.394-.387-.394-.387-3.739-3.617c-.027-.027-.039-.07-.035-.117a.368.368 0 0 1 .117-.223l.715-.69a.356.356 0 0 1 .235-.118.161.161 0 0 1 .117.031zm0 0"/></svg>
